X:292
T:Longford Tinker, The
T:Jenny Dang the Weaver
R:reel
D:Paul McGrattan: The Frost Is All Over
D:Bothy Band: 1975
Z:id:hn-reel-292
M:C|
K:D
dBBA ~B3c|dB~B2 effe|dBBA B2dB|ABde ~f3e|
dB~B2 fB~B2|dB~B2 f2fg|aAAF ABAF|ABde effe||
d2fd efge|defa gefe|d2fd efge|faaf gfef|
d2fd efge|defa ~g3a|bgaf gfed|faaf gfed||
fa~a2 fa~a2|faaf gfed|gb~b2 gb~b2|gbbf gfed|
fa~a2 fa~a2|faaf g2ga|bgaf gfed|faaf gfef||
P:Variations:
dBBA B2Bc|dB~B2 fBeB|dBBA B2dB|ABde fdec|
dB~B2 fB~B2|dB~B2 ~f3g|aA~A2 ABAF|ABde ~f3e||
~d3f effe|defg affe|~d3f efge|fgaf gfef|
~d3f effe|defa g2ga|b2af gfed|faaf gfed||
fa~a2 faaf|fa~a2 gfed|gb~b2 gbbg|gb~b2 gfeg|
fa~a2 faaf|faaf ~g3a|b2af gfed|fgaf gfef||

